X:992
T:Rookery, The
R:reel
C:Vincent Broderick (1920-2008)
Z:id:hn-reel-992
M:C|
L:1/8
K:G
BGAG EGDG | EGDG EGDE | GABd egdg | egdg edBA |
~G3A BGBd | e2ed efga | bgag eage |1 dBAc BGGA :|2 dBAc BGG2 ||
|: b2gb a2ga | b2gb aged | G2Bd egdg | egdg edBA |
~G3A BGBd | ~e3d efga | bgag e2ge |1 dBAc BGG2 :|2 dBAc BGGA ||

